web-magafilio/image/home/icon-site.svg

<svg width="59" height="59" viewBox="0 0 59 59" fill="none" xmlns="http://www.w3.org/2000/svg">
<path d="M42.6121 52.0415V56.8748H16.0288V52.0415H19.6538H38.9871H42.6121Z" fill="#D0D7DF"/>
<path d="M36.5704 44.7915L38.9871 52.0415H19.6538L22.0704 44.7915H26.9038H36.5704Z" fill="#A4B0C0"/>
<path d="M57.1121 4.9165V35.1248H1.52878V4.9165C1.52878 3.95509 1.9107 3.03306 2.59052 2.35324C3.27034 1.67342 4.19237 1.2915 5.15378 1.2915H53.4871C54.4485 1.2915 55.3706 1.67342 56.0504 2.35324C56.7302 3.03306 57.1121 3.95509 57.1121 4.9165Z" fill="#00CBA9"/>
<path d="M57.1121 35.125V41.1667C57.1121 42.1281 56.7302 43.0501 56.0504 43.7299C55.3706 44.4097 54.4485 44.7917 53.4871 44.7917H5.15378C4.19237 44.7917 3.27034 44.4097 2.59052 43.7299C1.9107 43.0501 1.52878 42.1281 1.52878 41.1667V35.125H57.1121Z" fill="#D0D7DF"/>
<path d="M41.4038 17V26.6667C41.4018 27.307 41.1466 27.9206 40.6938 28.3734C40.241 28.8262 39.6274 29.0814 38.9871 29.0833H19.6538C19.0134 29.0814 18.3998 28.8262 17.947 28.3734C17.4942 27.9206 17.239 27.307 17.2371 26.6667V17H41.4038Z" fill="#F1F2F2"/>
<path d="M43.8204 13.3748V15.7915C43.8204 16.112 43.6931 16.4193 43.4665 16.6459C43.2399 16.8725 42.9326 16.9998 42.6121 16.9998H16.0288C15.7083 16.9998 15.401 16.8725 15.1743 16.6459C14.9477 16.4193 14.8204 16.112 14.8204 15.7915V13.3748C14.8204 13.0544 14.9477 12.747 15.1743 12.5204C15.401 12.2938 15.7083 12.1665 16.0288 12.1665H42.6121C42.9326 12.1665 43.2399 12.2938 43.4665 12.5204C43.6931 12.747 43.8204 13.0544 43.8204 13.3748Z" fill="#D0D7DF"/>
<path d="M51.0704 33.9165H7.57042C7.24995 33.9165 6.94261 34.0438 6.716 34.2704C6.4894 34.497 6.36209 34.8044 6.36209 35.1248C6.36209 35.4453 6.4894 35.7527 6.716 35.9793C6.94261 36.2059 7.24995 36.3332 7.57042 36.3332H51.0704C51.3909 36.3332 51.6982 36.2059 51.9248 35.9793C52.1515 35.7527 52.2788 35.4453 52.2788 35.1248C52.2788 34.8044 52.1515 34.497 51.9248 34.2704C51.6982 34.0438 51.3909 33.9165 51.0704 33.9165Z" fill="#474C54"/>
<path d="M53.4871 0.083252H5.15377C3.87189 0.083252 2.64251 0.592477 1.73609 1.4989C0.829659 2.40533 0.320435 3.63471 0.320435 4.91659L0.320435 41.1666C0.320435 42.4485 0.829659 43.6778 1.73609 44.5843C2.64251 45.4907 3.87189 45.9999 5.15377 45.9999H20.3933L18.7826 50.8333H16.0288C15.7083 50.8333 15.401 50.9606 15.1743 51.1872C14.9477 51.4138 14.8204 51.7211 14.8204 52.0416V55.6666H13.6121C13.2916 55.6666 12.9843 55.7939 12.7577 56.0205C12.5311 56.2471 12.4038 56.5545 12.4038 56.8749C12.4038 57.1954 12.5311 57.5027 12.7577 57.7293C12.9843 57.9559 13.2916 58.0833 13.6121 58.0833H45.0288C45.3492 58.0833 45.6566 57.9559 45.8832 57.7293C46.1098 57.5027 46.2371 57.1954 46.2371 56.8749C46.2371 56.5545 46.1098 56.2471 45.8832 56.0205C45.6566 55.7939 45.3492 55.6666 45.0288 55.6666H43.8204V52.0416C43.8204 51.7211 43.6931 51.4138 43.4665 51.1872C43.2399 50.9606 42.9326 50.8333 42.6121 50.8333H39.8583L38.2476 45.9999H53.4871C54.769 45.9999 55.9984 45.4907 56.9048 44.5843C57.8112 43.6778 58.3204 42.4485 58.3204 41.1666V4.91659C58.3204 3.63471 57.8112 2.40533 56.9048 1.4989C55.9984 0.592477 54.769 0.083252 53.4871 0.083252V0.083252ZM55.9038 41.1666C55.9038 41.8075 55.6492 42.4222 55.1959 42.8754C54.7427 43.3286 54.128 43.5833 53.4871 43.5833H26.9038C26.5833 43.5833 26.276 43.7106 26.0493 43.9372C25.8227 44.1638 25.6954 44.4711 25.6954 44.7916C25.6954 45.1121 25.8227 45.4194 26.0493 45.646C26.276 45.8726 26.5833 45.9999 26.9038 45.9999H35.7004L37.8416 52.4234C37.9217 52.6639 38.0754 52.8732 38.281 53.0215C38.4866 53.1698 38.7336 53.2497 38.9871 53.2499H41.4038V55.6666H17.2371V53.2499H19.6538C19.9073 53.2497 20.1543 53.1698 20.3599 53.0215C20.5654 52.8732 20.7192 52.6639 20.7993 52.4234L23.2159 45.1734C23.2764 44.9919 23.2929 44.7985 23.264 44.6094C23.2352 44.4202 23.1618 44.2406 23.05 44.0853C22.9381 43.93 22.791 43.8036 22.6207 43.7163C22.4504 43.629 22.2618 43.5834 22.0704 43.5833H5.15377C4.51283 43.5833 3.89814 43.3286 3.44493 42.8754C2.99171 42.4222 2.7371 41.8075 2.7371 41.1666V4.91659C2.7371 4.27565 2.99171 3.66096 3.44493 3.20774C3.89814 2.75453 4.51283 2.49992 5.15377 2.49992H53.4871C54.128 2.49992 54.7427 2.75453 55.1959 3.20774C55.6492 3.66096 55.9038 4.27565 55.9038 4.91659V41.1666Z" fill="#474C54"/>
<path d="M23.2788 52.0416C23.2788 52.3621 23.4061 52.6694 23.6327 52.896C23.8593 53.1226 24.1666 53.2499 24.4871 53.2499H34.1538C34.4742 53.2499 34.7816 53.1226 35.0082 52.896C35.2348 52.6694 35.3621 52.3621 35.3621 52.0416C35.3621 51.7211 35.2348 51.4138 35.0082 51.1872C34.7816 50.9606 34.4742 50.8333 34.1538 50.8333H24.4871C24.1666 50.8333 23.8593 50.9606 23.6327 51.1872C23.4061 51.4138 23.2788 51.7211 23.2788 52.0416Z" fill="#474C54"/>
<path d="M16.0288 18.2081V26.6665C16.0288 27.6279 16.4107 28.5499 17.0905 29.2297C17.7703 29.9095 18.6923 30.2915 19.6538 30.2915H38.9871C39.9485 30.2915 40.8705 29.9095 41.5504 29.2297C42.2302 28.5499 42.6121 27.6279 42.6121 26.6665V18.2081C43.253 18.2081 43.8677 17.9535 44.3209 17.5003C44.7741 17.0471 45.0288 16.4324 45.0288 15.7915V13.3748C45.0288 12.7339 44.7741 12.1192 44.3209 11.666C43.8677 11.2127 43.253 10.9581 42.6121 10.9581H39.4873L33.7997 5.2705C33.5718 5.05039 33.2666 4.9286 32.9498 4.93135C32.633 4.93411 32.3299 5.06119 32.1059 5.28522C31.8818 5.50926 31.7547 5.81232 31.752 6.12914C31.7492 6.44596 31.871 6.75119 32.0911 6.97908L36.0702 10.9581H22.5707L26.5497 6.97908C26.6651 6.86762 26.7572 6.73429 26.8205 6.58686C26.8838 6.43944 26.9172 6.28089 26.9186 6.12044C26.92 5.96 26.8894 5.80089 26.8286 5.65239C26.7679 5.50389 26.6781 5.36898 26.5647 5.25552C26.4512 5.14207 26.3163 5.05235 26.1678 4.99159C26.0193 4.93084 25.8602 4.90026 25.6998 4.90166C25.5393 4.90305 25.3808 4.93638 25.2334 4.99971C25.0859 5.06304 24.9526 5.15509 24.8411 5.2705L19.1535 10.9581H16.0288C15.3878 10.9581 14.7731 11.2127 14.3199 11.666C13.8667 12.1192 13.6121 12.7339 13.6121 13.3748V15.7915C13.6121 16.4324 13.8667 17.0471 14.3199 17.5003C14.7731 17.9535 15.3878 18.2081 16.0288 18.2081ZM16.0288 13.3748H42.6121V15.7915H32.9454C32.625 15.7915 32.3176 15.9188 32.091 16.1454C31.8644 16.372 31.7371 16.6793 31.7371 16.9998C31.7371 17.3203 31.8644 17.6276 32.091 17.8542C32.3176 18.0808 32.625 18.2081 32.9454 18.2081H40.1954V26.6665C40.1954 26.9869 40.0681 27.2943 39.8415 27.5209C39.6149 27.7475 39.3076 27.8748 38.9871 27.8748H19.6538C19.3333 27.8748 19.0259 27.7475 18.7993 27.5209C18.5727 27.2943 18.4454 26.9869 18.4454 26.6665V18.2081H25.6954C26.0159 18.2081 26.3232 18.0808 26.5498 17.8542C26.7765 17.6276 26.9038 17.3203 26.9038 16.9998C26.9038 16.6793 26.7765 16.372 26.5498 16.1454C26.3232 15.9188 26.0159 15.7915 25.6954 15.7915H16.0288V13.3748Z" fill="#474C54"/>
<path d="M29.3204 25.4583C29.6409 25.4583 29.9482 25.331 30.1748 25.1044C30.4015 24.8778 30.5288 24.5705 30.5288 24.25V21.8333C30.5288 21.5129 30.4015 21.2055 30.1748 20.9789C29.9482 20.7523 29.6409 20.625 29.3204 20.625C29 20.625 28.6926 20.7523 28.466 20.9789C28.2394 21.2055 28.1121 21.5129 28.1121 21.8333V24.25C28.1121 24.5705 28.2394 24.8778 28.466 25.1044C28.6926 25.331 29 25.4583 29.3204 25.4583Z" fill="#474C54"/>
<path d="M35.3621 25.4583C35.6826 25.4583 35.9899 25.331 36.2165 25.1044C36.4431 24.8778 36.5704 24.5705 36.5704 24.25V21.8333C36.5704 21.5129 36.4431 21.2055 36.2165 20.9789C35.9899 20.7523 35.6826 20.625 35.3621 20.625C35.0416 20.625 34.7343 20.7523 34.5077 20.9789C34.2811 21.2055 34.1538 21.5129 34.1538 21.8333V24.25C34.1538 24.5705 34.2811 24.8778 34.5077 25.1044C34.7343 25.331 35.0416 25.4583 35.3621 25.4583Z" fill="#474C54"/>
<path d="M23.2788 20.625C22.9583 20.625 22.651 20.7523 22.4243 20.9789C22.1977 21.2055 22.0704 21.5129 22.0704 21.8333V24.25C22.0704 24.5705 22.1977 24.8778 22.4243 25.1044C22.651 25.331 22.9583 25.4583 23.2788 25.4583C23.5992 25.4583 23.9066 25.331 24.1332 25.1044C24.3598 24.8778 24.4871 24.5705 24.4871 24.25V21.8333C24.4871 21.5129 24.3598 21.2055 24.1332 20.9789C23.9066 20.7523 23.5992 20.625 23.2788 20.625Z" fill="#474C54"/>
</svg>

<svg width="59" height="59" fill="none" xmlns="http://www.w3.org/2000/svg"><path d="M42.612 52.041v4.834H16.03V52.04h26.583z" fill="#D0D7DF"/><path d="M36.57 44.791l2.417 7.25H19.654l2.416-7.25h14.5z" fill="#A4B0C0"/><path d="M57.112 4.917v30.208H1.53V4.916a3.625 3.625 0 013.625-3.625h48.333a3.625 3.625 0 013.625 3.626z" fill="#00CBA9"/><path d="M57.112 35.125v6.042a3.625 3.625 0 01-3.625 3.625H5.154a3.625 3.625 0 01-3.625-3.625v-6.042h55.583z" fill="#D0D7DF"/><path d="M41.404 17v9.667a2.424 2.424 0 01-2.417 2.416H19.654a2.424 2.424 0 01-2.417-2.416V17h24.167z" fill="#F1F2F2"/><path d="M43.82 13.375v2.416A1.208 1.208 0 0142.612 17H16.03a1.209 1.209 0 01-1.209-1.209v-2.416a1.208 1.208 0 011.209-1.209h26.583a1.208 1.208 0 011.208 1.209z" fill="#D0D7DF"/><path d="M51.07 33.916H7.57a1.208 1.208 0 100 2.417h43.5a1.208 1.208 0 100-2.416z" fill="#474C54"/><path d="M53.487.083H5.154A4.833 4.833 0 00.32 4.917v36.25A4.833 4.833 0 005.154 46h15.24l-1.611 4.833h-2.754a1.209 1.209 0 00-1.209 1.209v3.625h-1.208a1.208 1.208 0 100 2.416H45.03a1.209 1.209 0 000-2.416H43.82v-3.625a1.208 1.208 0 00-1.208-1.209h-2.754L38.248 46h15.24a4.833 4.833 0 004.832-4.833V4.917A4.833 4.833 0 0053.487.083zm2.417 41.084a2.416 2.416 0 01-2.417 2.416H26.904a1.209 1.209 0 000 2.417H35.7l2.142 6.423a1.208 1.208 0 001.145.827h2.417v2.417H17.237V53.25h2.417a1.209 1.209 0 001.145-.827l2.417-7.25a1.207 1.207 0 00-1.146-1.59H5.154a2.417 2.417 0 01-2.417-2.416V4.917A2.417 2.417 0 015.154 2.5h48.333a2.417 2.417 0 012.417 2.417v36.25z" fill="#474C54"/><path d="M23.279 52.042a1.208 1.208 0 001.208 1.208h9.667a1.208 1.208 0 000-2.417h-9.667a1.208 1.208 0 00-1.208 1.209zM16.029 18.208v8.459a3.625 3.625 0 003.625 3.624h19.333a3.625 3.625 0 003.625-3.625v-8.458a2.417 2.417 0 002.417-2.416v-2.417a2.417 2.417 0 00-2.417-2.417h-3.125L33.8 5.27a1.208 1.208 0 00-1.709 1.71l3.98 3.978h-13.5L26.55 6.98a1.208 1.208 0 10-1.709-1.708l-5.688 5.687H16.03a2.416 2.416 0 00-2.417 2.417v2.416a2.417 2.417 0 002.417 2.417zm0-4.833h26.583v2.416h-9.667a1.208 1.208 0 000 2.417h7.25v8.459a1.208 1.208 0 01-1.208 1.208H19.654a1.208 1.208 0 01-1.209-1.209v-8.458h7.25a1.208 1.208 0 100-2.416H16.03v-2.417z" fill="#474C54"/><path d="M29.32 25.458a1.208 1.208 0 001.209-1.208v-2.417a1.208 1.208 0 00-2.417 0v2.417a1.208 1.208 0 001.208 1.208zM35.362 25.458a1.208 1.208 0 001.208-1.208v-2.417a1.208 1.208 0 00-2.416 0v2.417a1.208 1.208 0 001.208 1.208zM23.279 20.625a1.209 1.209 0 00-1.209 1.208v2.417a1.208 1.208 0 102.417 0v-2.417a1.208 1.208 0 00-1.208-1.208z" fill="#474C54"/></svg>
